X:1
T: The Braes of Breadalbane
T: Second tune
R:Strathspey
Q:128
K:C
M:4/4
L:1/16
|:G2|c3d e3d c3A G2E2|C2G2 c2Bc d2D2 D2G2|c3d e3d c3A G2E2|G,3G, A,3B, C4-C2G2|
c3d e3d c3A G2E2|C2G2 c2Bc d2D2 D2G2|c3d e3d c3A G2E2|G,3G, A,3B, C4-C2ef|
g3a g2fe c'2g2 e2c2|f2af e2ge d3c d2e2|g3a g2fe c'2g2 e2c2|f3d e3B E4-c2e2|
g3a g2fe c'2g2 e2c2|fagf egfe d3c d2e2|G3c e3d c3A G2E2|G,3G, A,3B, C4-C2:|
